public/flags/BS.svg

<svg fill="none" height="53" viewBox="0 0 61 53" width="61" xmlns="http://www.w3.org/2000/svg" xmlns:xlink="http://www.w3.org/1999/xlink"><linearGradient id="a" gradientUnits="userSpaceOnUse" x1="1" x2="1" y1="17.1667" y2="31.3333"><stop offset="0" stop-color="#fce569"/><stop offset="1" stop-color="#fadf52"/></linearGradient><mask id="b" height="43" maskUnits="userSpaceOnUse" width="59" x="1" y="3"><rect fill="#fff" height="42.5" rx="4.24286" width="59" x="1" y="3"/></mask><rect fill="#fff" height="42.5" rx="4.24286" width="59" x="1" y="3"/><g clip-rule="evenodd" fill-rule="evenodd" mask="url(#b)"><path d="m1 45.5h59v-14.1667h-59z" fill="#22b7d5"/><path d="m1 17.1667h59v-14.1667h-59z" fill="#22b7d5"/><path d="m1 31.3333h59v-14.1666h-59z" fill="url(#a)"/><path d="m1 3 28.0952 21.25-28.0952 21.25z" fill="#262626"/></g></svg>

<svg width="61" height="53" viewBox="0 0 61 53" fill="none" xmlns="http://www.w3.org/2000/svg">
<rect x="1" y="3" width="59" height="42.5" rx="4.24286" fill="white"/>
<mask id="mask0" mask-type="alpha" maskUnits="userSpaceOnUse" x="1" y="3" width="59" height="43">
<rect x="1" y="3" width="59" height="42.5" rx="4.24286" fill="white"/>
</mask>
<g mask="url(#mask0)">
<path fill-rule="evenodd" clip-rule="evenodd" d="M1 45.5H60V31.3333H1V45.5Z" fill="#22B7D5"/>
<path fill-rule="evenodd" clip-rule="evenodd" d="M1 17.1667H60V3H1V17.1667Z" fill="#22B7D5"/>
<path fill-rule="evenodd" clip-rule="evenodd" d="M1 31.3333H60V17.1667H1V31.3333Z" fill="url(#paint0_linear)"/>
<path fill-rule="evenodd" clip-rule="evenodd" d="M1 3L29.0952 24.25L1 45.5V3Z" fill="#262626"/>
</g>
<defs>
<linearGradient id="paint0_linear" x1="1" y1="17.1667" x2="1" y2="31.3333" gradientUnits="userSpaceOnUse">
<stop stop-color="#FCE569"/>
<stop offset="1" stop-color="#FADF52"/>
</linearGradient>
</defs>
</svg>
